X: 1
T: the Ceilidh Umbrella
C: Muriel A. Johnstone
R: strathspey
%%staffsep 50.0pt
B: RSCDS 35-5
M: C
L: 1/8
K: Bb
F2 \
| "Bb"D<F B>d "Cm"c>B "F7"c<d \
| "Bb"B>F DF B,D F,B, \
| "Eb"G,>B, E<G "Bb"F<D F>B \
| "D7"A<D d>c "Gm"B2 ((3Bcd) |
| "Cm"((3edc) "Bb"d>B "Eb"c>B G<B \
| "Bb"F<D B<D "F"C>B, "D7"C<D \
| "Gm"B,2 B>A "Eb"G2 ((3gfe) \
| "F7"dc "Bb"B2 "Bb7"((3Bcd) ||
|| "Cm"e2 c>e "F7"A<F f>e \
| "Bb"d>c ((3Bcd) "Eb"G<E e>d \
| "Adim"c>B ((3ABc) "D7"^F<D d>c \
| "Gm"((3BAG) "Eb"((3gfe) "F7"d>c A<F |
| "Bb"D<F B>d "Cm"c>B "F7"c<d \
| "Bb"B>F DF B,D F,_A, \
| "Eb"G,>B, E<G "Bb"F<D ((3gfe) \
| "F7"dc "Bb"B2 |]
